X: 3
T: No_100_The_Corn_on_Frog_Mountain.krn
N: Derived from No_100_The_Corn_on_Frog_Mountain.krn
%%abc-version 2.0
%%abcx-abcm2ps-target-version 5.9.1 (29 Sep 2008)
%%abc-creator hum2abc beta
%%abcx-conversion-date 2019/03/15 08:37:56
%%humdrum-veritas 2613792804
%%humdrum-veritas-data 376076831
%%linebreak <none>
%%barnumbers 0
L: 1/4
M: 2/4
K: A clef=bass
E,/E,/ [I:setbarnb 1]| 
B,B, | 
B,A, | 
B,B, | 
A,B, ||  
[M:3/4]A,7//E,// A,3//A,// ||  
[M:2/4]E,2 | 
zF,/F,/ | 
A,B, | 
(A,F,) | 
A,F, | 
F,F, ||  
[M:3/4]E,7//C,// C,3//C,// ||  
[M:2/4]B,,2 | 
F,3//A,// A,/E,//E,// ||  
[M:3/4]E,3/D,// z// F,/E,/ | 
E,zE,/E,/ | 
E,2z |]  



